data/micro-5-charted.svg

<svg width="68.727" height="14" viewBox="0 0 68.727 14" xmlns="http://www.w3.org/2000/svg"><path transform="translate(0 10.097) scale(.0084848 -.0084848)" d="m900-460h-900v150h10v-140h140v140h-150v1510h900v-10h-140v-140h140v-10h-140v-140h140v-10h-140v-140h140v-10h-140v-140h140v-10h-140v-140h140v-10h-140v-140h140v-10h-140v-140h140v-10h-140v-140h140v-10h-140v-140h140v-10h-140v-140h140v-10h-140v-140h140zm-890 1510h140v140h-140zm300 0h140v140h-140zm300 0h140v140h-140zm-450 0h140v140h-140zm300 0h140v140h-140zm-450-150h140v140h-140zm300 0h140v140h-140zm300 0h140v140h-140zm-450 0h140v140h-140zm300 0h140v140h-140zm0-150h140v140h-140zm-450 0h140v140h-140zm300 0h140v140h-140zm-150 0h140v140h-140zm450 0h140v140h-140zm0-150h140v140h-140zm-300 0h140v140h-140zm-150-150h140v140h-140zm300 0h140v140h-140zm0-150h140v140h-140zm-300 0h140v140h-140zm300-150h140v140h-140zm-300 0h140v140h-140zm300-150h140v140h-140zm-300 0h140v140h-140zm300-150h140v140h-140zm-450 0h140v140h-140zm600 0h140v140h-140zm-300 0h140v140h-140zm-150 0h140v140h-140zm590-10h-140v-140h140zm-590-140h140v140h-140zm150 0h140v140h-140zm150 0h140v140h-140zm-450 0h140v140h-140zm440-150v140h-290v-140h140v140h10v-140zm150 0v140h-140v-140zm150 0v140h-140v-140z"/><path transform="translate(7.6364 10.097) scale(.0084848 -.0084848)" d="M0 -460V-310H10V-450H150V-310H0V1200H300V1190H160V1050H300V1040H160V900H300V890H160V750H300V740H160V600H300V590H160V450H300V440H160V300H300V290H160V150H300V140H160V0H300V-10H160V-150H300V-160H160V-300H300V-310H160V-450H300V-460ZM10 1050H150V1190H10ZM10 900H150V1040H10ZM10 750H150V890H10ZM10 450H150V590H10ZM10 -150H150V-10H10ZM150 -160H10V-300H150Z"/><path transform="translate(10.182 10.097) scale(.0084848 -.0084848)" d="M600 -460H0V-310H10V-450H150V-310H160V-450H300V-310H310V-450H450V-310H0V1200H600V1190H460V1050H600V1040H460V900H600V890H460V750H600V740H460V600H600V590H460V450H600V440H460V300H600V290H460V150H600V140H460V0H600V-10H460V-150H600V-160H460V-300H600V-310H460V-450H600ZM310 1050H450V1190H310ZM160 1050H300V1190H160ZM10 1050H150V1190H10ZM160 900H300V1040H160ZM310 900H450V1040H310ZM10 900H150V1040H10ZM310 750H450V890H310ZM160 750H300V890H160ZM10 750H150V890H10ZM310 600H450V740H310ZM10 600H150V740H10ZM160 600H300V740H160ZM10 450H150V590H10ZM160 300H300V440H160ZM310 300H450V440H310ZM160 150H300V290H160ZM310 150H450V290H310ZM10 0H150V140H10ZM160 -150H300V-10H160ZM310 -150H450V-10H310ZM10 -150H150V-10H10ZM160 -300H300V-160H160ZM10 -300H150V-160H10ZM450 -160H310V-300H450Z"/><path transform="translate(15.273 10.097) scale(.0084848 -.0084848)" d="M450 -460H0V-310H10V-450H150V-310H160V-450H300V-310H0V1200H450V1190H310V1050H450V1040H310V900H450V890H310V750H450V740H310V600H450V590H310V450H450V440H310V300H450V290H310V150H450V140H310V0H450V-10H310V-150H450V-160H310V-300H450V-310H310V-450H450ZM150 1050V1190H10V1050ZM160 1050H300V1190H160ZM10 900H150V1040H10ZM160 900H300V1040H160ZM10 750H150V890H10ZM160 750H300V890H160ZM10 600H150V740H10ZM160 600H300V740H160ZM160 300H300V440H160ZM160 150H300V290H160ZM160 0H300V140H160ZM10 -150H150V-10H10ZM160 -150H300V-10H160ZM10 -300H150V-160H10ZM160 -300H300V-160H160Z"/><path transform="translate(19.091 10.097) scale(.0084848 -.0084848)" d="M600 -460H0V-310H10V-450H150V-310H0V1200H600V1190H460V1050H600V1040H460V900H600V890H460V750H600V740H460V600H600V590H460V450H600V440H460V300H600V290H460V150H600V140H460V0H600V-10H460V-150H600V-160H460V-300H600V-310H460V-450H600ZM150 1050V1190H10V1050ZM310 1050H450V1190H310ZM160 1050H300V1190H160ZM310 900H450V1040H310ZM10 900H150V1040H10ZM160 900H300V1040H160ZM160 750H300V890H160ZM310 750H450V890H310ZM10 750H150V890H10ZM310 600H450V740H310ZM10 600H150V740H10ZM160 600H300V740H160ZM10 450H150V590H10ZM310 450H450V590H310ZM160 300H300V440H160ZM160 150H300V290H160ZM310 0H450V140H310ZM10 0H150V140H10ZM160 -150H300V-10H160ZM310 -150H450V-10H310ZM10 -150H150V-10H10ZM10 -300H150V-160H10ZM160 -300H300V-160H160ZM310 -300H450V-160H310ZM300 -450V-310H160V-450ZM450 -450V-310H310V-450Z"/><path transform="translate(24.182 10.097) scale(.0084848 -.0084848)" d="M450 -460H0V-310H10V-450H150V-310H160V-450H300V-310H0V1200H450V1190H310V1050H450V1040H310V900H450V890H310V750H450V740H310V600H450V590H310V450H450V440H310V300H450V290H310V150H450V140H310V0H450V-10H310V-150H450V-160H310V-300H450V-310H310V-450H450ZM150 1050V1190H10V1050ZM160 1050H300V1190H160ZM10 900H150V1040H10ZM160 900H300V1040H160ZM10 750H150V890H10ZM160 750H300V890H160ZM10 600H150V740H10ZM160 600H300V740H160ZM10 450H150V590H10ZM160 450H300V590H160ZM10 300H150V440H10ZM160 300H300V440H160ZM10 150H150V290H10ZM160 150H300V290H160ZM10 0H150V140H10ZM160 0H300V140H160ZM10 -150H150V-10H10ZM160 -150H300V-10H160ZM10 -300H150V-160H10ZM160 -300H300V-160H160Z"/><path transform="translate(28 10.097) scale(.0084848 -.0084848)" d="M600 -460H0V-310H10V-450H150V-310H160V-450H300V-310H310V-450H450V-310H0V1200H600V1190H460V1050H600V1040H460V900H600V890H460V750H600V740H460V600H600V590H460V450H600V440H460V300H600V290H460V150H600V140H460V0H600V-10H460V-150H600V-160H460V-300H600V-310H460V-450H600ZM150 1050V1190H10V1050ZM160 1050H300V1190H160ZM310 1050H450V1190H310ZM10 900H150V1040H10ZM160 900H300V1040H160ZM310 900H450V1040H310ZM10 750H150V890H10ZM160 750H300V890H160ZM310 750H450V890H310ZM160 450H300V590H160ZM310 450H450V590H310ZM10 150H150V290H10ZM160 150H300V290H160ZM310 -150H450V-10H310ZM160 -150H300V-10H160ZM10 -150H150V-10H10ZM310 -300H450V-160H310ZM160 -300H300V-160H160ZM10 -300H150V-160H10Z"/><path transform="translate(33.091 10.097) scale(.0084848 -.0084848)" d="M450 -460H0V-310H10V-450H150V-310H160V-450H300V-310H0V1200H450V1190H310V1050H450V1040H310V900H450V890H310V750H450V740H310V600H450V590H310V450H450V440H310V300H450V290H310V150H450V140H310V0H450V-10H310V-150H450V-160H310V-300H450V-310H310V-450H450ZM150 1050V1190H10V1050ZM160 1050H300V1190H160ZM10 900H150V1040H10ZM160 900H300V1040H160ZM10 750H150V890H10ZM160 750H300V890H160ZM10 600H150V740H10ZM160 600H300V740H160ZM10 450H150V590H10ZM160 450H300V590H160ZM10 300H150V440H10ZM160 300H300V440H160ZM10 150H150V290H10ZM160 150H300V290H160ZM10 0H150V140H10ZM160 0H300V140H160ZM10 -150H150V-10H10ZM160 -150H300V-10H160ZM10 -300H150V-160H10ZM160 -300H300V-160H160Z"/><path transform="translate(36.909 10.097) scale(.0084848 -.0084848)" d="M450 -460H0V-310H10V-450H150V-310H160V-450H300V-310H0V1200H450V1190H310V1050H450V1040H310V900H450V890H310V750H450V740H310V600H450V590H310V450H450V440H310V300H450V290H310V150H450V140H310V0H450V-10H310V-150H450V-160H310V-300H450V-310H310V-450H450ZM160 1050H300V1190H160ZM10 1050H150V1190H10ZM160 900H300V1040H160ZM10 900H150V1040H10ZM10 750H150V890H10ZM160 750H300V890H160ZM160 450H300V590H160ZM160 300H300V440H160ZM160 150H300V290H160ZM160 -150H300V-10H160ZM10 -150H150V-10H10ZM10 -300H150V-160H10ZM300 -160H160V-300H300Z"/><path transform="translate(40.727 10.097) scale(.0084848 -.0084848)" d="M600 -460H0V-310H10V-450H150V-310H0V1200H600V1190H460V1050H600V1040H460V900H600V890H460V750H600V740H460V600H600V590H460V450H600V440H460V300H600V290H460V150H600V140H460V0H600V-10H460V-150H600V-160H460V-300H600V-310H460V-450H600ZM310 1050H450V1190H310ZM10 1050H150V1190H10ZM160 1050H300V1190H160ZM310 900H450V1040H310ZM10 900H150V1040H10ZM160 900H300V1040H160ZM310 750H450V890H310ZM10 750H150V890H10ZM160 750H300V890H160ZM310 600H450V740H310ZM160 600H300V740H160ZM310 450H450V590H310ZM160 300H300V440H160ZM160 150H300V290H160ZM160 0H300V140H160ZM310 -150H450V-10H310ZM160 -150H300V-10H160ZM10 -150H150V-10H10ZM160 -300H300V-160H160ZM10 -300H150V-160H10ZM450 -160H310V-300H450ZM300 -450V-310H160V-450ZM450 -450V-310H310V-450Z"/><path transform="translate(45.818 10.097) scale(.0084848 -.0084848)" d="M600 -460H0V-310H10V-450H150V-310H160V-450H300V-310H310V-450H450V-310H0V1200H600V1190H460V1050H600V1040H460V900H600V890H460V750H600V740H460V600H600V590H460V450H600V440H460V300H600V290H460V150H600V140H460V0H600V-10H460V-150H600V-160H460V-300H600V-310H460V-450H600ZM160 1050H300V1190H160ZM310 1050H450V1190H310ZM10 1050H150V1190H10ZM310 900H450V1040H310ZM160 900H300V1040H160ZM10 900H150V1040H10ZM310 750H450V890H310ZM160 750H300V890H160ZM10 750H150V890H10ZM310 600H450V740H310ZM10 600H150V740H10ZM160 600H300V740H160ZM10 450H150V590H10ZM160 300H300V440H160ZM160 150H300V290H160ZM10 0H150V140H10ZM160 -150H300V-10H160ZM310 -150H450V-10H310ZM10 -150H150V-10H10ZM160 -300H300V-160H160ZM10 -300H150V-160H10ZM450 -160H310V-300H450Z"/><path transform="translate(50.909 10.097) scale(.0084848 -.0084848)" d="M450 -460H0V-310H10V-450H150V-310H160V-450H300V-310H0V1200H450V1190H310V1050H450V1040H310V900H450V890H310V750H450V740H310V600H450V590H310V450H450V440H310V300H450V290H310V150H450V140H310V0H450V-10H310V-150H450V-160H310V-300H450V-310H310V-450H450ZM150 1050V1190H10V1050ZM160 1050H300V1190H160ZM10 900H150V1040H10ZM160 900H300V1040H160ZM10 750H150V890H10ZM160 750H300V890H160ZM10 600H150V740H10ZM160 600H300V740H160ZM160 300H300V440H160ZM160 150H300V290H160ZM160 0H300V140H160ZM10 -150H150V-10H10ZM160 -150H300V-10H160ZM10 -300H150V-160H10ZM160 -300H300V-160H160Z"/><path transform="translate(54.727 10.097) scale(.0084848 -.0084848)" d="M450 -460H0V-310H10V-450H150V-310H160V-450H300V-310H0V1200H450V1190H310V1050H450V1040H310V900H450V890H310V750H450V740H310V600H450V590H310V450H450V440H310V300H450V290H310V150H450V140H310V0H450V-10H310V-150H450V-160H310V-300H450V-310H310V-450H450ZM150 1050V1190H10V1050ZM160 1050H300V1190H160ZM160 900H300V1040H160ZM10 900H150V1040H10ZM160 750H300V890H160ZM10 750H150V890H10ZM160 600H300V740H160ZM160 300H300V440H160ZM160 150H300V290H160ZM160 -150H300V-10H160ZM10 -150H150V-10H10ZM160 -300H300V-160H160ZM10 -300H150V-160H10Z"/><path transform="translate(58.545 10.097) scale(.0084848 -.0084848)" d="M600 -460H0V-310H10V-450H150V-310H160V-450H300V-310H310V-450H450V-310H0V1200H600V1190H460V1050H600V1040H460V900H600V890H460V750H600V740H460V600H600V590H460V450H600V440H460V300H600V290H460V150H600V140H460V0H600V-10H460V-150H600V-160H460V-300H600V-310H460V-450H600ZM160 1050H300V1190H160ZM310 1050H450V1190H310ZM10 1050H150V1190H10ZM310 900H450V1040H310ZM10 900H150V1040H10ZM160 900H300V1040H160ZM310 750H450V890H310ZM10 750H150V890H10ZM160 750H300V890H160ZM310 600H450V740H310ZM10 600H150V740H10ZM160 600H300V740H160ZM10 450H150V590H10ZM310 450H450V590H310ZM160 300H300V440H160ZM160 0H300V140H160ZM310 0H450V140H310ZM310 -150H450V-10H310ZM10 -150H150V-10H10ZM160 -300H300V-160H160ZM10 -300H150V-160H10ZM450 -160H310V-300H450Z"/><path transform="translate(63.636 10.097) scale(.0084848 -.0084848)" d="M450 1050V1190H310V1050ZM450 900V1040H310V900ZM300 900V1040H160V900ZM150 900V1040H10V900ZM450 750V890H310V750ZM300 750V890H160V750ZM150 750V890H10V750ZM300 600V740H160V600ZM150 600V740H10V600ZM150 450V590H10V450ZM300 300V440H160V300ZM300 150V290H160V150ZM150 0V140H10V0ZM450 -150V-10H310V-150ZM300 -150V-10H160V-150ZM150 -150V-10H10V-150ZM450 -450V-310H310V-450ZM150 1050V1190H10V1050ZM300 1050V1190H160V1050ZM150 -160H10V-300H150ZM300 -160H160V-300H300ZM450 -300V-160H310V-300ZM300 -450V-310H160V-450ZM150 -450V-310H10V-450ZM600 -460H0V1200H600V1190H460V1050H600V1040H460V900H600V890H460V750H600V740H460V600H600V590H460V450H600V440H460V300H600V290H460V150H600V140H460V0H600V-10H460V-150H600V-160H460V-300H600V-310H460V-450H600Z"/></svg>

<?xml version="1.0" encoding="utf-8" ?>
<svg baseProfile="tiny" height="100%" version="1.2" width="100%" xmlns="http://www.w3.org/2000/svg" xmlns:ev="http://www.w3.org/2001/xml-events" xmlns:xlink="http://www.w3.org/1999/xlink"><defs /><g><path d="M900 -460H0V-310H10V-450H150V-310H0V1200H900V1190H760V1050H900V1040H760V900H900V890H760V750H900V740H760V600H900V590H760V450H900V440H760V300H900V290H760V150H900V140H760V0H900V-10H760V-150H900V-160H760V-300H900V-310H760V-450H900ZM10 1050H150V1190H10ZM310 1050H450V1190H310ZM610 1050H750V1190H610ZM160 1050H300V1190H160ZM460 1050H600V1190H460ZM10 900H150V1040H10ZM310 900H450V1040H310ZM610 900H750V1040H610ZM160 900H300V1040H160ZM460 900H600V1040H460ZM460 750H600V890H460ZM10 750H150V890H10ZM310 750H450V890H310ZM160 750H300V890H160ZM610 750H750V890H610ZM610 600H750V740H610ZM310 600H450V740H310ZM160 450H300V590H160ZM460 450H600V590H460ZM460 300H600V440H460ZM160 300H300V440H160ZM460 150H600V290H460ZM160 150H300V290H160ZM460 0H600V140H460ZM160 0H300V140H160ZM460 -150H600V-10H460ZM10 -150H150V-10H10ZM610 -150H750V-10H610ZM310 -150H450V-10H310ZM160 -150H300V-10H160ZM750 -160H610V-300H750ZM160 -300H300V-160H160ZM310 -300H450V-160H310ZM460 -300H600V-160H460ZM10 -300H150V-160H10ZM450 -450V-310H160V-450H300V-310H310V-450ZM600 -450V-310H460V-450ZM750 -450V-310H610V-450Z" transform="translate(0.0, 72) scale(0.04363636363636364, -0.04363636363636364)" /><path d="M0 -460V-310H10V-450H150V-310H0V1200H300V1190H160V1050H300V1040H160V900H300V890H160V750H300V740H160V600H300V590H160V450H300V440H160V300H300V290H160V150H300V140H160V0H300V-10H160V-150H300V-160H160V-300H300V-310H160V-450H300V-460ZM10 1050H150V1190H10ZM10 900H150V1040H10ZM10 750H150V890H10ZM10 450H150V590H10ZM10 -150H150V-10H10ZM150 -160H10V-300H150Z" transform="translate(39.27272727272727, 72) scale(0.04363636363636364, -0.04363636363636364)" /><path d="M600 -460H0V-310H10V-450H150V-310H160V-450H300V-310H310V-450H450V-310H0V1200H600V1190H460V1050H600V1040H460V900H600V890H460V750H600V740H460V600H600V590H460V450H600V440H460V300H600V290H460V150H600V140H460V0H600V-10H460V-150H600V-160H460V-300H600V-310H460V-450H600ZM310 1050H450V1190H310ZM160 1050H300V1190H160ZM10 1050H150V1190H10ZM160 900H300V1040H160ZM310 900H450V1040H310ZM10 900H150V1040H10ZM310 750H450V890H310ZM160 750H300V890H160ZM10 750H150V890H10ZM310 600H450V740H310ZM10 600H150V740H10ZM160 600H300V740H160ZM10 450H150V590H10ZM160 300H300V440H160ZM310 300H450V440H310ZM160 150H300V290H160ZM310 150H450V290H310ZM10 0H150V140H10ZM160 -150H300V-10H160ZM310 -150H450V-10H310ZM10 -150H150V-10H10ZM160 -300H300V-160H160ZM10 -300H150V-160H10ZM450 -160H310V-300H450Z" transform="translate(52.36363636363637, 72) scale(0.04363636363636364, -0.04363636363636364)" /><path d="M450 -460H0V-310H10V-450H150V-310H160V-450H300V-310H0V1200H450V1190H310V1050H450V1040H310V900H450V890H310V750H450V740H310V600H450V590H310V450H450V440H310V300H450V290H310V150H450V140H310V0H450V-10H310V-150H450V-160H310V-300H450V-310H310V-450H450ZM150 1050V1190H10V1050ZM160 1050H300V1190H160ZM10 900H150V1040H10ZM160 900H300V1040H160ZM10 750H150V890H10ZM160 750H300V890H160ZM10 600H150V740H10ZM160 600H300V740H160ZM160 300H300V440H160ZM160 150H300V290H160ZM160 0H300V140H160ZM10 -150H150V-10H10ZM160 -150H300V-10H160ZM10 -300H150V-160H10ZM160 -300H300V-160H160Z" transform="translate(78.54545454545455, 72) scale(0.04363636363636364, -0.04363636363636364)" /><path d="M600 -460H0V-310H10V-450H150V-310H0V1200H600V1190H460V1050H600V1040H460V900H600V890H460V750H600V740H460V600H600V590H460V450H600V440H460V300H600V290H460V150H600V140H460V0H600V-10H460V-150H600V-160H460V-300H600V-310H460V-450H600ZM150 1050V1190H10V1050ZM310 1050H450V1190H310ZM160 1050H300V1190H160ZM310 900H450V1040H310ZM10 900H150V1040H10ZM160 900H300V1040H160ZM160 750H300V890H160ZM310 750H450V890H310ZM10 750H150V890H10ZM310 600H450V740H310ZM10 600H150V740H10ZM160 600H300V740H160ZM10 450H150V590H10ZM310 450H450V590H310ZM160 300H300V440H160ZM160 150H300V290H160ZM310 0H450V140H310ZM10 0H150V140H10ZM160 -150H300V-10H160ZM310 -150H450V-10H310ZM10 -150H150V-10H10ZM10 -300H150V-160H10ZM160 -300H300V-160H160ZM310 -300H450V-160H310ZM300 -450V-310H160V-450ZM450 -450V-310H310V-450Z" transform="translate(98.18181818181819, 72) scale(0.04363636363636364, -0.04363636363636364)" /><path d="M450 -460H0V-310H10V-450H150V-310H160V-450H300V-310H0V1200H450V1190H310V1050H450V1040H310V900H450V890H310V750H450V740H310V600H450V590H310V450H450V440H310V300H450V290H310V150H450V140H310V0H450V-10H310V-150H450V-160H310V-300H450V-310H310V-450H450ZM150 1050V1190H10V1050ZM160 1050H300V1190H160ZM10 900H150V1040H10ZM160 900H300V1040H160ZM10 750H150V890H10ZM160 750H300V890H160ZM10 600H150V740H10ZM160 600H300V740H160ZM10 450H150V590H10ZM160 450H300V590H160ZM10 300H150V440H10ZM160 300H300V440H160ZM10 150H150V290H10ZM160 150H300V290H160ZM10 0H150V140H10ZM160 0H300V140H160ZM10 -150H150V-10H10ZM160 -150H300V-10H160ZM10 -300H150V-160H10ZM160 -300H300V-160H160Z" transform="translate(124.36363636363637, 72) scale(0.04363636363636364, -0.04363636363636364)" /><path d="M600 -460H0V-310H10V-450H150V-310H160V-450H300V-310H310V-450H450V-310H0V1200H600V1190H460V1050H600V1040H460V900H600V890H460V750H600V740H460V600H600V590H460V450H600V440H460V300H600V290H460V150H600V140H460V0H600V-10H460V-150H600V-160H460V-300H600V-310H460V-450H600ZM150 1050V1190H10V1050ZM160 1050H300V1190H160ZM310 1050H450V1190H310ZM10 900H150V1040H10ZM160 900H300V1040H160ZM310 900H450V1040H310ZM10 750H150V890H10ZM160 750H300V890H160ZM310 750H450V890H310ZM160 450H300V590H160ZM310 450H450V590H310ZM10 150H150V290H10ZM160 150H300V290H160ZM310 -150H450V-10H310ZM160 -150H300V-10H160ZM10 -150H150V-10H10ZM310 -300H450V-160H310ZM160 -300H300V-160H160ZM10 -300H150V-160H10Z" transform="translate(144.0, 72) scale(0.04363636363636364, -0.04363636363636364)" /><path d="M450 -460H0V-310H10V-450H150V-310H160V-450H300V-310H0V1200H450V1190H310V1050H450V1040H310V900H450V890H310V750H450V740H310V600H450V590H310V450H450V440H310V300H450V290H310V150H450V140H310V0H450V-10H310V-150H450V-160H310V-300H450V-310H310V-450H450ZM150 1050V1190H10V1050ZM160 1050H300V1190H160ZM10 900H150V1040H10ZM160 900H300V1040H160ZM10 750H150V890H10ZM160 750H300V890H160ZM10 600H150V740H10ZM160 600H300V740H160ZM10 450H150V590H10ZM160 450H300V590H160ZM10 300H150V440H10ZM160 300H300V440H160ZM10 150H150V290H10ZM160 150H300V290H160ZM10 0H150V140H10ZM160 0H300V140H160ZM10 -150H150V-10H10ZM160 -150H300V-10H160ZM10 -300H150V-160H10ZM160 -300H300V-160H160Z" transform="translate(170.1818181818182, 72) scale(0.04363636363636364, -0.04363636363636364)" /><path d="M450 -460H0V-310H10V-450H150V-310H160V-450H300V-310H0V1200H450V1190H310V1050H450V1040H310V900H450V890H310V750H450V740H310V600H450V590H310V450H450V440H310V300H450V290H310V150H450V140H310V0H450V-10H310V-150H450V-160H310V-300H450V-310H310V-450H450ZM160 1050H300V1190H160ZM10 1050H150V1190H10ZM160 900H300V1040H160ZM10 900H150V1040H10ZM10 750H150V890H10ZM160 750H300V890H160ZM160 450H300V590H160ZM160 300H300V440H160ZM160 150H300V290H160ZM160 -150H300V-10H160ZM10 -150H150V-10H10ZM10 -300H150V-160H10ZM300 -160H160V-300H300Z" transform="translate(189.8181818181818, 72) scale(0.04363636363636364, -0.04363636363636364)" /><path d="M600 -460H0V-310H10V-450H150V-310H0V1200H600V1190H460V1050H600V1040H460V900H600V890H460V750H600V740H460V600H600V590H460V450H600V440H460V300H600V290H460V150H600V140H460V0H600V-10H460V-150H600V-160H460V-300H600V-310H460V-450H600ZM310 1050H450V1190H310ZM10 1050H150V1190H10ZM160 1050H300V1190H160ZM310 900H450V1040H310ZM10 900H150V1040H10ZM160 900H300V1040H160ZM310 750H450V890H310ZM10 750H150V890H10ZM160 750H300V890H160ZM310 600H450V740H310ZM160 600H300V740H160ZM310 450H450V590H310ZM160 300H300V440H160ZM160 150H300V290H160ZM160 0H300V140H160ZM310 -150H450V-10H310ZM160 -150H300V-10H160ZM10 -150H150V-10H10ZM160 -300H300V-160H160ZM10 -300H150V-160H10ZM450 -160H310V-300H450ZM300 -450V-310H160V-450ZM450 -450V-310H310V-450Z" transform="translate(209.45454545454544, 72) scale(0.04363636363636364, -0.04363636363636364)" /><path d="M600 -460H0V-310H10V-450H150V-310H160V-450H300V-310H310V-450H450V-310H0V1200H600V1190H460V1050H600V1040H460V900H600V890H460V750H600V740H460V600H600V590H460V450H600V440H460V300H600V290H460V150H600V140H460V0H600V-10H460V-150H600V-160H460V-300H600V-310H460V-450H600ZM160 1050H300V1190H160ZM310 1050H450V1190H310ZM10 1050H150V1190H10ZM310 900H450V1040H310ZM160 900H300V1040H160ZM10 900H150V1040H10ZM310 750H450V890H310ZM160 750H300V890H160ZM10 750H150V890H10ZM310 600H450V740H310ZM10 600H150V740H10ZM160 600H300V740H160ZM10 450H150V590H10ZM160 300H300V440H160ZM160 150H300V290H160ZM10 0H150V140H10ZM160 -150H300V-10H160ZM310 -150H450V-10H310ZM10 -150H150V-10H10ZM160 -300H300V-160H160ZM10 -300H150V-160H10ZM450 -160H310V-300H450Z" transform="translate(235.63636363636363, 72) scale(0.04363636363636364, -0.04363636363636364)" /><path d="M450 -460H0V-310H10V-450H150V-310H160V-450H300V-310H0V1200H450V1190H310V1050H450V1040H310V900H450V890H310V750H450V740H310V600H450V590H310V450H450V440H310V300H450V290H310V150H450V140H310V0H450V-10H310V-150H450V-160H310V-300H450V-310H310V-450H450ZM150 1050V1190H10V1050ZM160 1050H300V1190H160ZM10 900H150V1040H10ZM160 900H300V1040H160ZM10 750H150V890H10ZM160 750H300V890H160ZM10 600H150V740H10ZM160 600H300V740H160ZM160 300H300V440H160ZM160 150H300V290H160ZM160 0H300V140H160ZM10 -150H150V-10H10ZM160 -150H300V-10H160ZM10 -300H150V-160H10ZM160 -300H300V-160H160Z" transform="translate(261.8181818181818, 72) scale(0.04363636363636364, -0.04363636363636364)" /><path d="M450 -460H0V-310H10V-450H150V-310H160V-450H300V-310H0V1200H450V1190H310V1050H450V1040H310V900H450V890H310V750H450V740H310V600H450V590H310V450H450V440H310V300H450V290H310V150H450V140H310V0H450V-10H310V-150H450V-160H310V-300H450V-310H310V-450H450ZM150 1050V1190H10V1050ZM160 1050H300V1190H160ZM160 900H300V1040H160ZM10 900H150V1040H10ZM160 750H300V890H160ZM10 750H150V890H10ZM160 600H300V740H160ZM160 300H300V440H160ZM160 150H300V290H160ZM160 -150H300V-10H160ZM10 -150H150V-10H10ZM160 -300H300V-160H160ZM10 -300H150V-160H10Z" transform="translate(281.45454545454544, 72) scale(0.04363636363636364, -0.04363636363636364)" /><path d="M600 -460H0V-310H10V-450H150V-310H160V-450H300V-310H310V-450H450V-310H0V1200H600V1190H460V1050H600V1040H460V900H600V890H460V750H600V740H460V600H600V590H460V450H600V440H460V300H600V290H460V150H600V140H460V0H600V-10H460V-150H600V-160H460V-300H600V-310H460V-450H600ZM160 1050H300V1190H160ZM310 1050H450V1190H310ZM10 1050H150V1190H10ZM310 900H450V1040H310ZM10 900H150V1040H10ZM160 900H300V1040H160ZM310 750H450V890H310ZM10 750H150V890H10ZM160 750H300V890H160ZM310 600H450V740H310ZM10 600H150V740H10ZM160 600H300V740H160ZM10 450H150V590H10ZM310 450H450V590H310ZM160 300H300V440H160ZM160 0H300V140H160ZM310 0H450V140H310ZM310 -150H450V-10H310ZM10 -150H150V-10H10ZM160 -300H300V-160H160ZM10 -300H150V-160H10ZM450 -160H310V-300H450Z" transform="translate(301.09090909090907, 72) scale(0.04363636363636364, -0.04363636363636364)" /><path d="M450 1050V1190H310V1050ZM450 900V1040H310V900ZM300 900V1040H160V900ZM150 900V1040H10V900ZM450 750V890H310V750ZM300 750V890H160V750ZM150 750V890H10V750ZM300 600V740H160V600ZM150 600V740H10V600ZM150 450V590H10V450ZM300 300V440H160V300ZM300 150V290H160V150ZM150 0V140H10V0ZM450 -150V-10H310V-150ZM300 -150V-10H160V-150ZM150 -150V-10H10V-150ZM450 -450V-310H310V-450ZM150 1050V1190H10V1050ZM300 1050V1190H160V1050ZM150 -160H10V-300H150ZM300 -160H160V-300H300ZM450 -300V-160H310V-300ZM300 -450V-310H160V-450ZM150 -450V-310H10V-450ZM600 -460H0V1200H600V1190H460V1050H600V1040H460V900H600V890H460V750H600V740H460V600H600V590H460V450H600V440H460V300H600V290H460V150H600V140H460V0H600V-10H460V-150H600V-160H460V-300H600V-310H460V-450H600Z" transform="translate(327.27272727272725, 72) scale(0.04363636363636364, -0.04363636363636364)" /></g></svg>
